X:1
T:Arfau, LMD
T:Arfau, LMD
T:Carmina Sacra, by Lowell Mason, 1844
T:Public Domain Courtesy of the Cyber Hymnal™
C:Carmina Sacra, by Lowell Mason, 1844
Z:Public Domain
Z:Courtesy of the Cyber Hymnal™
%%score 1 2 3 4
L:1/8
Q:1/4=102
M:4/4
K:D
V:1 treble 
V:2 treble 
V:3 treble-8 
V:4 bass 
V:1
 A | F2 D2 d3 ^G | A2 B2 A3 A | A2 d2 (BG) (AB) | A3 G F3 :| A | e2 B2 c3 A | A2 G2 F3 A | %8
 e2 B2 (cA) (Fd) | c2 B2 A3 A | F2 D2 d3 ^G | A2 c2 A3 A | A2 (Ad) (BG) (AB) | A3 G F3 |] %14
V:2
 A | F2 D2 F3 E | E2 E2 D3 G | F2 D2 (DG) (FE) | D2 C2 D3 :| A | G2 F2 E3 E | D2 D2 D3 D | %8
 G2 F2 E2 (DF) | E2 D2 C3 A | F2 D2 F3 E | E2 E2 D3 G | (FG) (AF) (DG) (FE) | D2 C2 D3 |] %14
V:3
 A | F2 D2 B3 B | c2 A2 d3 c | d2 F2 B2 (AG) | F2 E2 D3 :| d | c2 B2 A3 G | F2 B2 A3 d | %8
 c2 B2 (AE) (FB) | A2 ^G2 A3 A | F2 D2 B3 B | c2 A2 d3 c | d2 A2 B2 AG | F2 E2 D3 |] %14
V:4
 A, | F,2 D,2 B,,3 E, | A,2 G,2 F,3 E, | D,2 B,2 G,2 (F,G,) | A,2 A,,2 D,3 :| F, | E,2 D,2 C,3 C, | %7
 D,2 G,2 F,3 F, | E,2 D,2 C,2 D,2 | E,2 E,2 A,,3 A, | F,2 D,2 B,,3 E, | A,2 G,2 F,3 E, | %12
 (D,E,) (F,D,) (G,E,) (E,F,) | A,2 A,,2 D,3 |] %14

